X:91
T: WAS WOELLN WIR AUF DEN ABEND THUN
N: E1120A
O: Europa, Mitteleuropa, Deutschland
R: Trink -, Zech - Lied
M: 4/4
L: 1/8
K: G
D2 | G2G2A2A2 | B2AGA2
c2 | B2G2F2EF | G4z2
D2 | G2G2A2A2 | B2AGA2
c2 | B2G2F2EF | G4z4
d2d2A2A2 | B2B2A2
A2 | d2d2A2A2 | B2B2A2d2
d2B2A2A2 | G6

